X:2204
T:George White's
O:england
M:2/2
L:1/8
R:Reel
K:D
dc||:BF~F2 BFAF|EDEF DB,A,B,|DF~F2 ADFA|B2AF efed|
BF~F2 BFAF|EDEF DB,A,B,|DEFA dBAF|EDEF D4:||
||:dBAB defe|d2ef dBAF|~A2de fded|Beed efd2|
dBAF ~A3B|~d2AB defe|d2cA BFAF|EDEF D4:||


